X: 13
T: Drowsy Maggie
R: reel
M: 4/4
L: 1/8
K: Edor
"Em"E2 GE BE GE |"Em" E2 GB "D"AD FD |"Em" E2 GE BE GE |"G" BA Bc "D"dA FD |
"Em"E2 GE BE GE |"Em" E2 GB "D"AD FD |"Em" E2 GE BE GE |"G" BA Bc "D"dA FA:|
|:"D"d2 fd "A"c2 ec |"D" de fg "D"af "Em"ge |"D" d2 fd "A"c2 ec |"G" BA Bc "D"dA FA |
"D"d2 fd "A"c2 ec |"D" de fg "D"af "Em"ge |"D" af"Em"ge "D"fd"Em"ec |"G" BA Bc "D"dA FD:|]


Tune 27	Setting 20867

